Costumes/R-glow.svg

<?xml version="1.0" encoding="UTF-8" standalone="no"?>
<svg
   version="1.1"
   width="71.946266"
   height="77.440384"
   id="svg9"
   sodipodi:docname="R-glow.svg"
   xmlns:inkscape="http://www.inkscape.org/namespaces/inkscape"
   xmlns:sodipodi="http://sodipodi.sourceforge.net/DTD/sodipodi-0.dtd"
   xmlns="http://www.w3.org/2000/svg"
   xmlns:svg="http://www.w3.org/2000/svg">
  <defs
     id="defs13" />
  <sodipodi:namedview
     id="namedview11"
     pagecolor="#ffffff"
     bordercolor="#000000"
     borderopacity="0.25"
     inkscape:showpageshadow="2"
     inkscape:pageopacity="0.0"
     inkscape:pagecheckerboard="0"
     inkscape:deskcolor="#d1d1d1" />
  <!-- Exported by Scratch - http://scratch.mit.edu/ -->
  <g
     id="ID0.5629414552822709"
     transform="translate(-1.2053285e-4,0.00238482)">
    <g
       id="ID0.6002094144932926">
      <g
         id="ID0.8163827913813293">
        <path
           id="ID0.6007779934443533"
           fill="#faa83b"
           d="m 60.881,57.091 c 0.233,0.88 -0.161,2.215 -1.186,4.003 -1.023,1.789 -2.105,3.064 -3.246,3.826 -1.141,0.762 -2.911,1.261 -5.308,1.495 -1.931,0.176 -3.73,-0.675 -5.396,-2.551 -1.668,-1.876 -2.617,-3.958 -2.851,-6.245 -0.645,-6.45 -1.464,-11.083 -2.458,-13.898 -0.118,-0.703 -0.439,-1.743 -0.966,-3.122 -0.526,-1.377 -1.725,-2.507 -3.597,-3.387 -1.405,-0.527 -2.837,-1.084 -4.299,-1.671 -0.234,-0.058 -0.526,-0.058 -0.877,0 -0.819,0.234 -2.517,0.703 -5.09,1.407 v 1.671 6.861 c 0,0.118 0.044,0.675 0.132,1.671 0.088,0.998 0.132,1.702 0.132,2.111 0.117,0.998 0.265,3.637 0.44,7.916 0.409,0.177 0.849,0.177 1.319,0 1.583,-0.645 2.99,-0.791 4.222,-0.439 0.88,0.294 1.319,0.998 1.319,2.111 0,1.643 -0.865,2.625 -2.595,2.946 -1.73,0.323 -4.266,0.778 -7.608,1.364 -2.698,0.527 -4.692,0.791 -5.981,0.791 -1.994,0 -3.373,-0.469 -4.134,-1.407 -0.176,-1.936 0.82,-3.107 2.99,-3.519 1.76,-0.176 3.519,-0.381 5.277,-0.616 0.234,-0.292 0.353,-0.615 0.353,-0.967 -0.06,-1.349 -0.382,-6.187 -0.968,-14.514 -0.176,-1.993 -0.235,-3.519 -0.176,-4.574 -1.056,-0.058 -1.76,-0.146 -2.111,-0.264 -0.88,-0.293 -1.438,-0.85 -1.671,-1.671 v -0.265 c 0.116,-0.058 0.204,-0.352 0.264,-0.879 0.82,-1.29 1.876,-1.788 3.167,-1.496 0.116,-0.352 0.088,-1.289 -0.089,-2.814 -0.527,-5.57 -0.851,-10.027 -0.967,-13.37 -0.235,-0.233 -0.734,-0.293 -1.496,-0.176 -1.173,0.235 -1.789,0.352 -1.847,0.352 -3.167,0 -4.692,-0.761 -4.574,-2.287 0.117,-1.407 1.319,-2.256 3.606,-2.551 2.052,-0.409 6.362,-1.055 12.931,-1.935 -0.294,0.059 1.788,0.146 6.245,0.264 5.159,0.411 8.766,1.262 10.819,2.551 2.228,1.467 3.723,3.401 4.485,5.806 0.233,0.763 0.293,1.906 0.176,3.431 -0.059,1.525 -0.294,2.609 -0.703,3.254 -1.35,2.463 -4.076,4.662 -8.181,6.598 0,0.176 0.029,0.294 0.088,0.352 1.466,1.056 2.463,1.994 2.991,2.814 1.523,2.463 2.551,6.041 3.078,10.731 0.762,6.393 1.377,10.409 1.847,12.051 0.059,0.352 0.469,0.909 1.231,1.671 0.762,0.764 1.378,1.174 1.848,1.231 1.816,0.118 2.932,-0.703 3.343,-2.463 -0.06,-0.645 0.204,-1.524 0.791,-2.639 0.821,-0.762 1.817,-1.144 2.991,-1.144 1.175,0.002 1.937,0.531 2.29,1.585 z M 43.289,26.217 c 0.527,-0.527 0.791,-1.348 0.791,-2.463 0,-2.99 -1.056,-5.13 -3.166,-6.421 -2.111,-1.289 -6.686,-1.876 -13.723,-1.759 -0.527,0 -1.319,0.234 -2.375,0.703 0.177,0.88 0.177,1.613 0,2.199 -0.059,0.88 -0.059,1.701 0,2.463 0.029,1.583 0.089,3.549 0.177,5.894 0.292,3.46 0.439,5.396 0.439,5.805 0.996,-0.058 2.463,-0.352 4.398,-0.879 0.292,-0.293 0.703,-0.616 1.231,-0.968 0.409,-0.117 1.465,-0.176 3.166,-0.176 3.226,0.001 6.247,-1.464 9.062,-4.398 z" />
        <path
           id="ID0.0849599870853126"
           fill="#00cccc"
           d="m 50.648,77.438 c -3.449,0 -8.526,-1.088 -13.128,-6.269 -0.076,-0.086 -0.151,-0.172 -0.227,-0.259 -1.404,0.801 -2.985,1.382 -4.707,1.702 -1.729,0.322 -4.271,0.779 -7.614,1.365 -3.42,0.665 -5.96,0.975 -7.984,0.975 -6.808,0 -10.652,-2.98 -12.679,-5.48 C 2.935,67.778 2.096,65.712 1.899,63.54 1.336,57.336 4.525,51.982 9.934,49.454 9.855,48.305 9.765,47.003 9.662,45.531 7.927,43.904 6.648,41.821 5.968,39.427 5.69,38.449 5.549,37.437 5.549,36.42 v -0.265 c 0,-1.246 0.211,-2.461 0.605,-3.601 C 6.441,31.431 6.904,30.357 7.53,29.373 7.855,28.862 8.203,28.378 8.572,27.92 8.564,27.832 8.556,27.743 8.55,27.655 6.766,26.986 4.927,25.916 3.341,24.203 0.936,21.603 -0.237,18.206 0.04,14.635 0.701,6.685 7.208,2.947 12.769,2.085 c 2.388,-0.458 6.752,-1.11 13.314,-1.989 1.029,-0.137 2.045,-0.129 3.026,0.012 0.621,0.028 1.998,0.08 4.969,0.158 0.195,0.005 0.391,0.016 0.585,0.031 7.113,0.566 12.132,1.9 15.793,4.199 0.068,0.042 0.135,0.085 0.202,0.129 4.316,2.843 7.401,6.877 8.921,11.667 0.011,0.036 0.022,0.071 0.033,0.107 0.64,2.091 0.844,4.411 0.64,7.289 -0.15,3.249 -0.861,5.917 -2.17,8.135 -0.759,1.344 -1.673,2.609 -2.747,3.801 0.916,2.609 1.583,5.57 2.017,8.929 0.41,-0.031 0.824,-0.047 1.242,-0.047 5.88,0 10.873,3.57 12.72,9.096 0.073,0.221 0.14,0.442 0.199,0.667 1.51,5.689 -1.337,10.658 -2.272,12.291 -1.895,3.312 -4.082,5.77 -6.682,7.506 -2.695,1.8 -6.08,2.878 -10.346,3.296 -0.569,0.054 -1.07,0.076 -1.565,0.076 z" />
      </g>
    </g>
    <g
       id="ID0.23415496619418263">
      <path
         id="ID0.2135459086857736"
         fill="#ffffff"
         d="m 60.881,57.091 c 0.233,0.88 -0.161,2.215 -1.186,4.003 -1.023,1.789 -2.105,3.064 -3.246,3.826 -1.141,0.762 -2.911,1.261 -5.308,1.495 -1.931,0.176 -3.73,-0.675 -5.396,-2.551 -1.668,-1.876 -2.617,-3.958 -2.851,-6.245 -0.645,-6.45 -1.464,-11.083 -2.458,-13.898 -0.118,-0.703 -0.439,-1.743 -0.966,-3.122 -0.526,-1.377 -1.725,-2.507 -3.597,-3.387 -1.405,-0.527 -2.837,-1.084 -4.299,-1.671 -0.234,-0.058 -0.526,-0.058 -0.877,0 -0.819,0.234 -2.517,0.703 -5.09,1.407 v 1.671 6.861 c 0,0.118 0.044,0.675 0.132,1.671 0.088,0.998 0.132,1.702 0.132,2.111 0.117,0.998 0.265,3.637 0.44,7.916 0.409,0.177 0.849,0.177 1.319,0 1.583,-0.645 2.99,-0.791 4.222,-0.439 0.88,0.294 1.319,0.998 1.319,2.111 0,1.643 -0.865,2.625 -2.595,2.946 -1.73,0.323 -4.266,0.778 -7.608,1.364 -2.698,0.527 -4.692,0.791 -5.981,0.791 -1.994,0 -3.373,-0.469 -4.134,-1.407 -0.176,-1.936 0.82,-3.107 2.99,-3.519 1.76,-0.176 3.519,-0.381 5.277,-0.616 0.234,-0.292 0.353,-0.615 0.353,-0.967 -0.06,-1.349 -0.382,-6.187 -0.968,-14.514 -0.176,-1.993 -0.235,-3.519 -0.176,-4.574 -1.056,-0.058 -1.76,-0.146 -2.111,-0.264 -0.88,-0.293 -1.438,-0.85 -1.671,-1.671 v -0.265 c 0.116,-0.058 0.204,-0.352 0.264,-0.879 0.82,-1.29 1.876,-1.788 3.167,-1.496 0.116,-0.352 0.088,-1.289 -0.089,-2.814 -0.527,-5.57 -0.851,-10.027 -0.967,-13.37 -0.235,-0.233 -0.734,-0.293 -1.496,-0.176 -1.173,0.235 -1.789,0.352 -1.847,0.352 -3.167,0 -4.692,-0.761 -4.574,-2.287 0.117,-1.407 1.319,-2.256 3.606,-2.551 2.052,-0.409 6.362,-1.055 12.931,-1.935 -0.294,0.059 1.788,0.146 6.245,0.264 5.159,0.411 8.766,1.262 10.819,2.551 2.228,1.467 3.723,3.401 4.485,5.806 0.233,0.763 0.293,1.906 0.176,3.431 -0.059,1.525 -0.294,2.609 -0.703,3.254 -1.35,2.463 -4.076,4.662 -8.181,6.598 0,0.176 0.029,0.294 0.088,0.352 1.466,1.056 2.463,1.994 2.991,2.814 1.523,2.463 2.551,6.041 3.078,10.731 0.762,6.393 1.377,10.409 1.847,12.051 0.059,0.352 0.469,0.909 1.231,1.671 0.762,0.764 1.378,1.174 1.848,1.231 1.816,0.118 2.932,-0.703 3.343,-2.463 -0.06,-0.645 0.204,-1.524 0.791,-2.639 0.821,-0.762 1.817,-1.144 2.991,-1.144 1.175,0.002 1.937,0.531 2.29,1.585 z M 43.289,26.217 c 0.527,-0.527 0.791,-1.348 0.791,-2.463 0,-2.99 -1.056,-5.13 -3.166,-6.421 -2.111,-1.289 -6.686,-1.876 -13.723,-1.759 -0.527,0 -1.319,0.234 -2.375,0.703 0.177,0.88 0.177,1.613 0,2.199 -0.059,0.88 -0.059,1.701 0,2.463 0.029,1.583 0.089,3.549 0.177,5.894 0.292,3.46 0.439,5.396 0.439,5.805 0.996,-0.058 2.463,-0.352 4.398,-0.879 0.292,-0.293 0.703,-0.616 1.231,-0.968 0.409,-0.117 1.465,-0.176 3.166,-0.176 3.226,0.001 6.247,-1.464 9.062,-4.398 z" />
    </g>
  </g>
</svg>

<svg version="1.1" width="72" height="78" xmlns="http://www.w3.org/2000/svg" xmlns:xlink="http://www.w3.org/1999/xlink">
  <!-- Exported by Scratch - http://scratch.mit.edu/ -->
  <g id="ID0.5629414552822709">
    <g id="ID0.6002094144932926">
      <g id="ID0.8163827913813293">
        <path id="ID0.6007779934443533" fill="#FAA83B" d="M 60.881 57.091 C 61.114 57.971 60.720 59.306 59.695 61.094 C 58.672 62.883 57.590 64.158 56.449 64.920 C 55.308 65.682 53.538 66.181 51.141 66.415 C 49.210 66.591 47.411 65.740 45.745 63.864 C 44.077 61.988 43.128 59.906 42.894 57.619 C 42.249 51.169 41.430 46.536 40.436 43.721 C 40.318 43.018 39.997 41.978 39.470 40.599 C 38.944 39.222 37.745 38.092 35.873 37.212 C 34.468 36.685 33.036 36.128 31.574 35.541 C 31.340 35.483 31.048 35.483 30.697 35.541 C 29.878 35.775 28.180 36.244 25.607 36.948 L 25.607 38.619 L 25.607 45.480 C 25.607 45.598 25.651 46.155 25.739 47.151 C 25.827 48.149 25.871 48.853 25.871 49.262 C 25.988 50.260 26.136 52.899 26.311 57.178 C 26.720 57.355 27.160 57.355 27.630 57.178 C 29.213 56.533 30.620 56.387 31.852 56.739 C 32.732 57.033 33.171 57.737 33.171 58.850 C 33.171 60.493 32.306 61.475 30.576 61.796 C 28.846 62.119 26.310 62.574 22.968 63.160 C 20.270 63.687 18.276 63.951 16.987 63.951 C 14.993 63.951 13.614 63.482 12.853 62.544 C 12.677 60.608 13.673 59.437 15.843 59.025 C 17.603 58.849 19.362 58.644 21.120 58.409 C 21.354 58.117 21.473 57.794 21.473 57.442 C 21.413 56.093 21.091 51.255 20.505 42.928 C 20.329 40.935 20.270 39.409 20.329 38.354 C 19.273 38.296 18.569 38.208 18.218 38.090 C 17.338 37.797 16.780 37.240 16.547 36.419 L 16.547 36.154 C 16.663 36.096 16.751 35.802 16.811 35.275 C 17.631 33.985 18.687 33.487 19.978 33.779 C 20.094 33.427 20.066 32.490 19.889 30.965 C 19.362 25.395 19.038 20.938 18.922 17.595 C 18.687 17.362 18.188 17.302 17.426 17.419 C 16.253 17.654 15.637 17.771 15.579 17.771 C 12.412 17.771 10.887 17.010 11.005 15.484 C 11.122 14.077 12.324 13.228 14.611 12.933 C 16.663 12.524 20.973 11.878 27.542 10.998 C 27.248 11.057 29.330 11.144 33.787 11.262 C 38.946 11.673 42.553 12.524 44.606 13.813 C 46.834 15.280 48.329 17.214 49.091 19.619 C 49.324 20.382 49.384 21.525 49.267 23.050 C 49.208 24.575 48.973 25.659 48.564 26.304 C 47.214 28.767 44.488 30.966 40.383 32.902 C 40.383 33.078 40.412 33.196 40.471 33.254 C 41.937 34.310 42.934 35.248 43.462 36.068 C 44.985 38.531 46.013 42.109 46.540 46.799 C 47.302 53.192 47.917 57.208 48.387 58.850 C 48.446 59.202 48.856 59.759 49.618 60.521 C 50.380 61.285 50.996 61.695 51.466 61.752 C 53.282 61.870 54.398 61.049 54.809 59.289 C 54.749 58.644 55.013 57.765 55.600 56.650 C 56.421 55.888 57.417 55.506 58.591 55.506 C 59.766 55.508 60.528 56.037 60.881 57.091 Z M 43.289 26.217 C 43.816 25.690 44.080 24.869 44.080 23.754 C 44.080 20.764 43.024 18.624 40.914 17.333 C 38.803 16.044 34.228 15.457 27.191 15.574 C 26.664 15.574 25.872 15.808 24.816 16.277 C 24.993 17.157 24.993 17.890 24.816 18.476 C 24.757 19.356 24.757 20.177 24.816 20.939 C 24.845 22.522 24.905 24.488 24.993 26.833 C 25.285 30.293 25.432 32.229 25.432 32.638 C 26.428 32.580 27.895 32.286 29.830 31.759 C 30.122 31.466 30.533 31.143 31.061 30.791 C 31.470 30.674 32.526 30.615 34.227 30.615 C 37.453 30.616 40.474 29.151 43.289 26.217 Z "/>
        <path id="ID0.0849599870853126" fill="#00CCCC" d="M 50.648 77.438 C 47.199 77.438 42.122 76.350 37.520 71.169 C 37.444 71.083 37.369 70.997 37.293 70.910 C 35.889 71.711 34.308 72.292 32.586 72.612 C 30.857 72.934 28.315 73.391 24.972 73.977 C 21.552 74.642 19.012 74.952 16.988 74.952 C 10.180 74.952 6.336 71.972 4.309 69.472 C 2.935 67.778 2.096 65.712 1.899 63.540 C 1.336 57.336 4.525 51.982 9.934 49.454 C 9.855 48.305 9.765 47.003 9.662 45.531 C 7.927 43.904 6.648 41.821 5.968 39.427 C 5.690 38.449 5.549 37.437 5.549 36.420 L 5.549 36.155 C 5.549 34.909 5.760 33.694 6.154 32.554 C 6.441 31.431 6.904 30.357 7.530 29.373 C 7.855 28.862 8.203 28.378 8.572 27.920 C 8.564 27.832 8.556 27.743 8.550 27.655 C 6.766 26.986 4.927 25.916 3.341 24.203 C 0.936 21.603 -0.237 18.206 0.040 14.635 C 0.701 6.685 7.208 2.947 12.769 2.085 C 15.157 1.627 19.521 0.975 26.083 0.096 C 27.112 -0.041 28.128 -0.033 29.109 0.108 C 29.730 0.136 31.107 0.188 34.078 0.266 C 34.273 0.271 34.469 0.282 34.663 0.297 C 41.776 0.863 46.795 2.197 50.456 4.496 C 50.524 4.538 50.591 4.581 50.658 4.625 C 54.974 7.468 58.059 11.502 59.579 16.292 C 59.590 16.328 59.601 16.363 59.612 16.399 C 60.252 18.490 60.456 20.810 60.252 23.688 C 60.102 26.937 59.391 29.605 58.082 31.823 C 57.323 33.167 56.409 34.432 55.335 35.624 C 56.251 38.233 56.918 41.194 57.352 44.553 C 57.762 44.522 58.176 44.506 58.594 44.506 C 64.474 44.506 69.467 48.076 71.314 53.602 C 71.387 53.823 71.454 54.044 71.513 54.269 C 73.023 59.958 70.176 64.927 69.241 66.560 C 67.346 69.872 65.159 72.330 62.559 74.066 C 59.864 75.866 56.479 76.944 52.213 77.362 C 51.644 77.416 51.143 77.438 50.648 77.438 Z "/>
      </g>
    </g>
    <g id="ID0.23415496619418263">
      <path id="ID0.2135459086857736" fill="#FFFFFF" d="M 60.881 57.091 C 61.114 57.971 60.720 59.306 59.695 61.094 C 58.672 62.883 57.590 64.158 56.449 64.920 C 55.308 65.682 53.538 66.181 51.141 66.415 C 49.210 66.591 47.411 65.740 45.745 63.864 C 44.077 61.988 43.128 59.906 42.894 57.619 C 42.249 51.169 41.430 46.536 40.436 43.721 C 40.318 43.018 39.997 41.978 39.470 40.599 C 38.944 39.222 37.745 38.092 35.873 37.212 C 34.468 36.685 33.036 36.128 31.574 35.541 C 31.340 35.483 31.048 35.483 30.697 35.541 C 29.878 35.775 28.180 36.244 25.607 36.948 L 25.607 38.619 L 25.607 45.480 C 25.607 45.598 25.651 46.155 25.739 47.151 C 25.827 48.149 25.871 48.853 25.871 49.262 C 25.988 50.260 26.136 52.899 26.311 57.178 C 26.720 57.355 27.160 57.355 27.630 57.178 C 29.213 56.533 30.620 56.387 31.852 56.739 C 32.732 57.033 33.171 57.737 33.171 58.850 C 33.171 60.493 32.306 61.475 30.576 61.796 C 28.846 62.119 26.310 62.574 22.968 63.160 C 20.270 63.687 18.276 63.951 16.987 63.951 C 14.993 63.951 13.614 63.482 12.853 62.544 C 12.677 60.608 13.673 59.437 15.843 59.025 C 17.603 58.849 19.362 58.644 21.120 58.409 C 21.354 58.117 21.473 57.794 21.473 57.442 C 21.413 56.093 21.091 51.255 20.505 42.928 C 20.329 40.935 20.270 39.409 20.329 38.354 C 19.273 38.296 18.569 38.208 18.218 38.090 C 17.338 37.797 16.780 37.240 16.547 36.419 L 16.547 36.154 C 16.663 36.096 16.751 35.802 16.811 35.275 C 17.631 33.985 18.687 33.487 19.978 33.779 C 20.094 33.427 20.066 32.490 19.889 30.965 C 19.362 25.395 19.038 20.938 18.922 17.595 C 18.687 17.362 18.188 17.302 17.426 17.419 C 16.253 17.654 15.637 17.771 15.579 17.771 C 12.412 17.771 10.887 17.010 11.005 15.484 C 11.122 14.077 12.324 13.228 14.611 12.933 C 16.663 12.524 20.973 11.878 27.542 10.998 C 27.248 11.057 29.330 11.144 33.787 11.262 C 38.946 11.673 42.553 12.524 44.606 13.813 C 46.834 15.280 48.329 17.214 49.091 19.619 C 49.324 20.382 49.384 21.525 49.267 23.050 C 49.208 24.575 48.973 25.659 48.564 26.304 C 47.214 28.767 44.488 30.966 40.383 32.902 C 40.383 33.078 40.412 33.196 40.471 33.254 C 41.937 34.310 42.934 35.248 43.462 36.068 C 44.985 38.531 46.013 42.109 46.540 46.799 C 47.302 53.192 47.917 57.208 48.387 58.850 C 48.446 59.202 48.856 59.759 49.618 60.521 C 50.380 61.285 50.996 61.695 51.466 61.752 C 53.282 61.870 54.398 61.049 54.809 59.289 C 54.749 58.644 55.013 57.765 55.600 56.650 C 56.421 55.888 57.417 55.506 58.591 55.506 C 59.766 55.508 60.528 56.037 60.881 57.091 Z M 43.289 26.217 C 43.816 25.690 44.080 24.869 44.080 23.754 C 44.080 20.764 43.024 18.624 40.914 17.333 C 38.803 16.044 34.228 15.457 27.191 15.574 C 26.664 15.574 25.872 15.808 24.816 16.277 C 24.993 17.157 24.993 17.890 24.816 18.476 C 24.757 19.356 24.757 20.177 24.816 20.939 C 24.845 22.522 24.905 24.488 24.993 26.833 C 25.285 30.293 25.432 32.229 25.432 32.638 C 26.428 32.580 27.895 32.286 29.830 31.759 C 30.122 31.466 30.533 31.143 31.061 30.791 C 31.470 30.674 32.526 30.615 34.227 30.615 C 37.453 30.616 40.474 29.151 43.289 26.217 Z "/>
    </g>
  </g>
</svg>
